X:1
T:Title
%%score { ( 1 3 5 ) | ( 2 4 6 ) }
L:1/8
M:4/4
K:C
V:1 treble nm="Grand Piano"
V:3 treble 
V:5 treble 
V:2 bass 
V:4 bass 
V:6 bass 
V:1
 z4 z2[Q:1/4=100] [CE][DF] | [EG]2 [EG]2 [FA][EG][CE][EG] | [Ec]6 z2 | [Ge]3 [Gd] [Gc]2 [Ge]2 | %4
 [Gd]4[K:bass] z4[K:treble] | [EG]2 [EG]2 [FA][EG][Ec][Fd] | [Ge]6 z2 | z4 z2 B2 | [CEc]6 Bc | %9
 d2 d2 d^cd_e | [Ge]6 z2 | [Gd]3 [EGc] [D^FB]2 [CFA]2 | G4 z4 | [EG]2 [_E^F][=EG] [=FA]Gcd | %14
 e6 z2 | d3 [Fd] c2 B-[FB] | [Ec]6 z2 |[M:1/4] Bc |[M:4/4] d6 z2 | [Ec]6 z2 | d6 z2 | [Ge]6 z2 | %22
 [Ge]4- [Ge]e[Fd][Ec] | [FA]6 z2 | G6 z2 |[M:3/4] c2- [Fc-]2 [Ec]2 |] %26
V:2
 z4 z2 [C,G,][C,G,] | [C,C]2 [C,C]2 [C,C]2 [C,G,]2 | [C,G,]6 z2 | [C,C]3 [D,B,] [E,C]2 [C,C]2 | %4
 [G,B,]2 G,A, G,F,[E,G,C][D,G,D] | [C,C]2 [C,C]2 [C,C]2 [C,C]2 | [C,C]6 z2 | %7
 [F,A,F]3 [F,A,F] [G,E]2 z D | C,6[K:treble] [G,D][G,E] | [G,B,F]2 [G,B,F]2 FEF^F | [C,C]6 z2 | %11
 [D,B,]3 D, D,2 D,2 | G,2 A,2 G,F,E,D, | [C,C]2 [C,C]2 z EE,G, | [CG]6 z2 | %15
 [F,A,F]3 [D,A,] [G,E]2 [G,,G,]2 | [C,G,]6 z2 |[M:1/4][K:treble] [G,DG][G,CG] | %18
[M:4/4] G2- [G,G-]2 [G,G]2 FF | C2[K:bass] G,E, C,2[K:treble] [G,G][G,A,G] | %20
 G2- [G,G-]2 GG[K:bass]G^F | [C,C]2 E,G,[K:treble] C2 CC | C2 C2 z G[K:bass] [E,C]2 | %23
 [F,C]F,F,F, F,2 [F,CF][F,CF] | E6[K:treble] z2 |[M:3/4][K:bass] G,2 z2 z2 |] %26
V:3
 x8 | x8 | x8 | x8 | z2[K:bass] B,C B,A,E[K:treble]F | x8 | x8 | d3 d c2 [B,D]F | x8 | x8 | x8 | %11
 x8 | B,6 [G,CE][G,DF] | z4 z2 [CG]2 | x8 | z4 z2 .D2 | x8 |[M:1/4] x2 |[M:4/4] z2 B,2 z GAB | %19
 z2 CG, G,2 Bc | z2 B,2 z fe_e | z2 CC z2 [Ec][Fd] | x8 | z CCC C2 AA | z2 C2 z G[FA]B | %25
[M:3/4] E2 z2 z2 |] %26
V:4
 x8 | x8 | x8 | x8 | x8 | x8 | x8 | z4 z2 G,,2 | x6[K:treble] x2 | z4 [G,B,]2 [G,B,]2 | x8 | x8 | %12
 x8 | z4 [C,C]2 z2 | x8 | x8 | x8 |[M:1/4][K:treble] x2 |[M:4/4] [G,B,]2 z2 z2 [G,D]2 | %19
 x2[K:bass] x4[K:treble] x2 | [G,B,]2 z2 G,2[K:bass] [G,,B,]2 | x4[K:treble] x4 | %22
 z4 C2[K:bass] z2 | x8 | [G,C]2 G,2 z[K:treble] E z F |[M:3/4][K:bass] C,2- [C,-A,]2 [C,G,]2 |] %26
V:5
 x8 | x8 | x8 | x8 | x2[K:bass] x5[K:treble] x | x8 | x8 | x8 | x8 | x8 | x8 | x8 | x8 | x8 | x8 | %15
 x8 | x8 |[M:1/4] x2 |[M:4/4] z4 B,2 z2 | x8 | z4 B,2 z2 | x8 | x8 | x8 | z4 C2 z2 |[M:3/4] x6 |] %26
V:6
 x8 | x8 | x8 | x8 | x8 | x8 | x8 | x8 | x6[K:treble] x2 | x8 | x8 | x8 | x8 | x8 | x8 | x8 | x8 | %17
[M:1/4][K:treble] x2 |[M:4/4] x8 | x2[K:bass] x4[K:treble] x2 | x6[K:bass] x2 | x4[K:treble] x4 | %22
 x6[K:bass] x2 | x8 | z4 G,2[K:treble] G,2 |[M:3/4][K:bass] x6 |] %26

